!!!SOCIAL_FUNCTION:	songs of the drum-presentation ceremony
!!!PDT:	1913
!!!OTL: No_69_Song_of_the_Pipe.krn
!!!REG: Great_Lakes
!!!LANG: Non-Tone
!!!LING_GROUP: Algonquin
**kern	**kern
*staff2	*staff1
=1-	=1-
*clefF4	*clefF4
*k[f#c#g#]	*k[f#c#g#]
*M2/4	*M2/4
8GG#/L	8c#\L
8GG#/J	8c#\J
8GG#/L	4c#\
8GG#/J	.
=2	=2
8GG#/L	16c#\LL
.	16c#\J
8GG#/J	8c#\J
8GG#/L	4c#\
8GG#/J	.
=3	=3
2r	8d#\L
.	8d#\J
.	4c#\
=4	=4
2r	16c#\LL
.	16c#\J
.	8c#\J
.	4c#\
=5	=5
2r	8c#\L
.	8B\J
.	4A\
=6||	=6||
*M3/4	*M3/4
2.r	4B\
.	8c#\L
.	8B\J
.	4A\
=7||	=7||
*M2/4	*M2/4
2r	16F#\LL
.	16F#\J
.	8F#\J
.	4F#\
=8	=8
2r	8A\L
.	8A\J
.	4F#\
=9	=9
2r	16F#\LL
.	16F#\J
.	8F#\J
.	8F#\L
.	8E\J
=10	=10
2r	4F#\
.	8F#\L
.	8F#\J
=11	=11
2r	2F#\
=12	=12
2r	[2F#\
=13	=13
2r	2F#\]
=14	=14
2r	8c#\L
.	16c#\L
.	16c#\JJ
.	8c#\L
.	8c#\J
=15	=15
2r	8c#\L
.	8B\J
.	4A\
=16||	=16||
*M3/4	*M3/4
2.r	4B\
.	8c#\L
.	8B\J
.	4A\
=17||	=17||
*M2/4	*M2/4
2r	8F#\L
.	16F#\L
.	16F#\JJ
.	4F#\
=18	=18
2r	8A\L
.	8A\J
.	4F#\
=19	=19
2r	8F#\L
.	16F#\L
.	16F#\JJ
.	8F#\L
.	8E\J
=20	=20
2r	4F#\
.	8F#\L
.	8F#\J
=21	=21
2r	2F#\
==	==
*-	*-
